Papirus/32x32/apps/polari.svg

<!-- Created with Inkscape (http://www.inkscape.org/) -->
<svg width="32" height="32" version="1.1" viewBox="0 0 32 32" xmlns="http://www.w3.org/2000/svg">
 <g>
  <path d="m12.5 11c-1.384999 0-2.5 1.115001-2.5 2.5v11c0 1.384999 1.115001 2.5 2.5 2.5h10.5l4 4v-4h0.5c1.384999 0 2.5-1.115001 2.5-2.5v-11c0-1.384999-1.115001-2.5-2.5-2.5z" style="opacity:.2"/>
  <path d="m12.5 10c-1.384999 0-2.5 1.115001-2.5 2.5v11c0 1.384999 1.115001 2.5 2.5 2.5h10.5l4 4v-4h0.5c1.384999 0 2.5-1.115001 2.5-2.5v-11c0-1.384999-1.115001-2.5-2.5-2.5z" style="fill:#f2f2f2"/>
  <path d="m12.5 10c-1.384999 0-2.5 1.115001-2.5 2.5v1c0-1.384999 1.115001-2.5 2.5-2.5h15c1.384999 0 2.5 1.115001 2.5 2.5v-1c0-1.384999-1.115001-2.5-2.5-2.5z" style="fill:#ffffff;opacity:.2"/>
  <path d="m4.5 3c-1.3849986 0-2.5 1.1150014-2.5 2.5v11c0 1.384999 1.1150014 2.5 2.5 2.5h0.5v4l4-4h10.5c1.384999 0 2.5-1.115001 2.5-2.5v-11c0-1.3849986-1.115001-2.5-2.5-2.5z" style="opacity:.2"/>
  <path d="m4.5 2c-1.3849986 0-2.5 1.1150014-2.5 2.5v11c0 1.384999 1.1150014 2.5 2.5 2.5h0.5v4l4-4h10.5c1.384999 0 2.5-1.115001 2.5-2.5v-11c0-1.3849986-1.115001-2.5-2.5-2.5z" style="fill:#33d17a"/>
  <path d="m9 6v2h-2v2h2v2h-2v2h2v2h2v-2h2v2h2v-2h2v-2h-2v-2h2v-2h-2v-2h-2v2h-2v-2zm2 4h2v2h-2z" style="opacity:.2"/>
  <path d="m9 5v2h-2v2h2v2h-2v2h2v2h2v-2h2v2h2v-2h2v-2h-2v-2h2v-2h-2v-2h-2v2h-2v-2zm2 4h2v2h-2z" style="fill:#ffffff"/>
  <path d="m4.5 2c-1.3849986 0-2.5 1.1150014-2.5 2.5v1c0-1.3849986 1.1150014-2.5 2.5-2.5h15c1.384999 0 2.5 1.1150014 2.5 2.5v-1c0-1.3849986-1.115001-2.5-2.5-2.5h-15z" style="fill:#ffffff;opacity:.2"/>
 </g>
</svg>

<svg xmlns="http://www.w3.org/2000/svg" width="32" height="32" version="1.1">
 <path style="opacity:0.2" d="M 12.5,11 C 11.115,11 10,12.115 10,13.5 V 24.5 C 10,25.885 11.115,27 12.5,27 H 23 L 27,31 V 27 H 27.5 C 28.885,27 30,25.885 30,24.5 V 13.5 C 30,12.115 28.885,11 27.5,11 Z"/>
 <path style="fill:#dfdfdf" d="M 12.5,10 C 11.115,10 10,11.115 10,12.5 V 23.5 C 10,24.885 11.115,26 12.5,26 H 23 L 27,30 V 26 H 27.5 C 28.885,26 30,24.885 30,23.5 V 12.5 C 30,11.115 28.885,10 27.5,10 Z"/>
 <path style="opacity:0.2;fill:#ffffff" d="M 12.5,10 C 11.115,10 10,11.115 10,12.5 V 13.5 C 10,12.115 11.115,11 12.5,11 H 27.5 C 28.885,11 30,12.115 30,13.5 V 12.5 C 30,11.115 28.885,10 27.5,10 Z"/>
 <path style="opacity:0.2" d="M 4.5,3 C 3.115,3 2,4.115 2,5.5 V 16.5 C 2,17.885 3.115,19 4.5,19 H 5 V 23 L 9,19 H 19.5 C 20.885,19 22,17.885 22,16.5 V 5.5 C 22,4.115 20.885,3 19.5,3 Z"/>
 <path style="fill:#33d17a" d="M 4.5,2 C 3.115,2 2,3.115 2,4.5 V 15.5 C 2,16.885 3.115,18 4.5,18 H 5 V 22 L 9,18 H 19.5 C 20.885,18 22,16.885 22,15.5 V 4.5 C 22,3.115 20.885,2 19.5,2 Z"/>
 <path style="opacity:0.2" d="M 9,6 V 8 H 7 V 10 H 9 V 12 H 7 V 14 H 9 V 16 H 11 V 14 H 13 V 16 H 15 V 14 H 17 V 12 H 15 V 10 H 17 V 8 H 15 V 6 H 13 V 8 H 11 V 6 Z M 11,10 H 13 V 12 H 11 Z"/>
 <path style="fill:#ffffff" d="M 9,5 V 7 H 7 V 9 H 9 V 11 H 7 V 13 H 9 V 15 H 11 V 13 H 13 V 15 H 15 V 13 H 17 V 11 H 15 V 9 H 17 V 7 H 15 V 5 H 13 V 7 H 11 V 5 Z M 11,9 H 13 V 11 H 11 Z"/>
 <path style="opacity:0.2;fill:#ffffff" d="M 4.5,2 C 3.115,2 2,3.115 2,4.5 V 5.5 C 2,4.115 3.115,3 4.5,3 H 19.5 C 20.885,3 22,4.115 22,5.5 V 4.5 C 22,3.115 20.885,2 19.5,2 Z"/>
</svg>
